X:191
T: Die beiden Waisenkinder
N: Q0118D
O: Mitteleuropa, Deutschland (BRD) , Rheinland
N: Zweistimmig notiert, Oberstimme kodiert. Schlusspause ergaenzt.
R: Ballade, Waise, boese Stiefmutter, Klage am Grab, Geist
M: 6/8
L: 1/16
K: G
B2 | B3BB2B4B2 | c2c2z6
A2 | A4d2d4c2 | B4z2
d6 | B3BB2B2c2d2 | e6e2d2
c2 | d4d2d4c2 | B4z2
d6 | B3BB2B2c2d2 | e6e2d2
c2 | d4d2d4c2 | B4z6

@@@ Tune index: 1484
